hosted/assets/icon/widgets/dark-mode/matplolib-generic.svg

<svg width="50" height="50" viewBox="0 0 50 50" fill="none" xmlns="http://www.w3.org/2000/svg">
<g clip-path="url(#clip0_2104_3496)">
<path fill-rule="evenodd" clip-rule="evenodd" d="M22 42.3C33.2114 42.3 42.3 33.2114 42.3 22C42.3 10.7886 33.2114 1.7 22 1.7C10.7886 1.7 1.7 10.7886 1.7 22C1.7 33.2114 10.7886 42.3 22 42.3ZM22 44C34.1503 44 44 34.1503 44 22C44 9.84974 34.1503 0 22 0C9.84974 0 0 9.84974 0 22C0 34.1503 9.84974 44 22 44Z" fill="white"/>
<path d="M26.4019 10.1151L22.208 21.4386C22.1688 21.5445 22.3077 21.624 22.3792 21.5367L29.9282 12.3101C29.9663 12.2635 29.9549 12.194 29.9038 12.162L26.5487 10.0651C26.4949 10.0315 26.4239 10.0557 26.4019 10.1151Z" fill="#4A6BB7"/>
<path fill-rule="evenodd" clip-rule="evenodd" d="M26.8789 11.274L24.5643 17.5234L28.7306 12.4313L26.8789 11.274ZM25.6046 9.81993C25.8137 9.2554 26.4885 9.02521 26.999 9.34428L30.3541 11.4412C30.8396 11.7446 30.9484 12.4053 30.5859 12.8484L29.928 12.3101L30.5858 12.8484L23.0369 22.0749L22.379 21.5367L23.0369 22.0749C22.3576 22.9051 21.0382 22.1492 21.4108 21.1434L25.6046 9.81993Z" fill="white"/>
<path d="M23.9734 32.8787L21.6222 22.0629C21.5983 21.9533 21.4398 21.96 21.4253 22.0712L20.0145 32.8871C20.0067 32.9469 20.0533 33 20.1137 33H23.8757C23.9395 33 23.987 32.9411 23.9734 32.8787Z" fill="#4A6BB7"/>
<path fill-rule="evenodd" clip-rule="evenodd" d="M20.583 21.9613C20.7208 20.9045 22.2269 20.8409 22.4533 21.8823L24.8046 32.6982C24.9333 33.2903 24.4822 33.85 23.8762 33.85H20.1142C19.5408 33.85 19.098 33.3458 19.1722 32.7771L20.583 21.9613ZM21.7099 26.4653L20.9684 32.15H22.9457L21.7099 26.4653Z" fill="white"/>
<path d="M18.0693 5.12568L21.9034 21.5852C21.9273 21.6881 21.7961 21.7531 21.7289 21.6716L11.0786 8.77086C11.0381 8.72183 11.053 8.64797 11.1094 8.61855L17.9256 5.05973C17.9835 5.02948 18.0544 5.06203 18.0693 5.12568Z" fill="#4A6BB7"/>
<path fill-rule="evenodd" clip-rule="evenodd" d="M17.5322 4.30625C18.0827 4.01887 18.7563 4.32811 18.8972 4.93285L18.0765 5.12401L18.8972 4.93285L22.7313 21.3924C22.959 22.3699 21.7124 22.9868 21.0734 22.2127L10.4231 9.312C10.0386 8.84624 10.1807 8.14461 10.7161 7.86507L10.7161 7.86507L17.5322 4.30625ZM17.4611 6.26117L12.3235 8.94359L20.351 18.6673L17.4611 6.26117Z" fill="white"/>
<path d="M33.1245 35.9057L22.5138 22.6423C22.44 22.55 22.559 22.4286 22.6527 22.5004L35.9161 32.6691C35.9617 32.704 35.9685 32.7699 35.9312 32.8135L33.2785 35.9083C33.2377 35.9559 33.1637 35.9547 33.1245 35.9057Z" fill="#4A6BB7"/>
<path fill-rule="evenodd" clip-rule="evenodd" d="M27.0312 26.9283L33.2226 34.6676L34.7705 32.8617L27.0312 26.9283ZM35.3985 33.3432C35.3987 33.3433 35.3989 33.3435 35.3991 33.3436L35.8554 32.7484L35.3991 33.3436L35.3985 33.3432ZM33.7878 35.3741L33.7883 35.3747L33.2027 35.8432L33.7883 35.3747C33.7882 35.3745 33.788 35.3743 33.7878 35.3741ZM21.8501 23.1733C21.1492 22.2972 22.2795 21.1432 23.1699 21.8259L22.6528 22.5004M23.1699 21.8259L36.4334 31.9945C36.8659 32.3261 36.9314 32.9529 36.5767 33.3667L33.924 36.4615C33.924 36.4615 33.924 36.4615 33.924 36.4615C33.5363 36.9137 32.8329 36.9018 32.4609 36.4367L21.8501 23.1733" fill="white"/>
<path d="M8.4896 15.0661L21.7456 22.0097C21.8295 22.0537 21.8109 22.1788 21.7179 22.1966L7.13632 24.974C7.06918 24.9868 7.00929 24.93 7.01852 24.8622L8.34412 15.1412C8.35349 15.0725 8.4282 15.034 8.4896 15.0661Z" fill="#4A6BB7"/>
<path fill-rule="evenodd" clip-rule="evenodd" d="M7.50254 15.0264C7.59152 14.3738 8.30127 14.0076 8.88463 14.3132L22.1406 21.2568C22.9378 21.6744 22.7616 22.8632 21.8776 23.0315L7.29599 25.809L7.13694 24.974L7.29598 25.809C6.65823 25.9305 6.08922 25.3907 6.17694 24.7474L7.50254 15.0264ZM9.04255 16.315L8.00224 23.9439L19.4456 21.7642L9.04255 16.315Z" fill="white"/>
<path d="M50 36.5C50 43.9558 43.9558 50 36.5 50C29.0442 50 23 43.9558 23 36.5C23 29.0442 29.0442 23 36.5 23C43.9558 23 50 29.0442 50 36.5Z" fill="#404258"/>
<path fill-rule="evenodd" clip-rule="evenodd" d="M36.5 48.3C43.017 48.3 48.3 43.017 48.3 36.5C48.3 29.983 43.017 24.7 36.5 24.7C29.983 24.7 24.7 29.983 24.7 36.5C24.7 43.017 29.983 48.3 36.5 48.3ZM36.5 50C43.9558 50 50 43.9558 50 36.5C50 29.0442 43.9558 23 36.5 23C29.0442 23 23 29.0442 23 36.5C23 43.9558 29.0442 50 36.5 50Z" fill="white"/>
<path d="M45.0783 40.0925L45.0784 40.0925C45.5375 39.6517 45.8024 39.0734 45.9675 38.3697C46.0093 38.1912 46.037 38.0231 46.0683 37.833C46.0813 37.7538 46.0949 37.6709 46.1105 37.5817V36.6563C46.0967 36.6114 46.0821 36.5505 46.0768 36.4802M45.0783 40.0925L46.725 36.4313M45.0783 40.0925C44.7603 40.398 44.42 40.5518 44.0299 40.5592C42.0993 40.5959 40.1714 40.5938 38.2358 40.5917C37.5223 40.591 36.8078 40.5902 36.0917 40.5914M45.0783 40.0925L36.0917 40.5914M46.0768 36.4802C46.0768 36.4797 46.0768 36.4792 46.0767 36.4787L46.725 36.4313M46.0768 36.4802C46.0769 36.4804 46.0769 36.4807 46.0769 36.481L46.725 36.4313M46.0768 36.4802C46.044 36.0536 45.9405 35.63 45.7928 35.1907M46.725 36.4313C46.6868 35.9334 46.5671 35.4544 46.4089 34.9836M45.7928 35.1907C45.7928 35.1907 45.7928 35.1908 45.7928 35.1908L46.4089 34.9836M45.7928 35.1907L46.4089 34.9836M45.7928 35.1907C45.3116 33.7605 44.1676 32.8269 42.7833 32.6588C42.7173 33.3607 42.6121 34.0616 42.4544 34.7575L46.4089 34.9836M36.1667 45.3426C36.8555 45.3711 37.5452 45.3168 38.235 45.1953L38.2352 45.1953C39.0024 45.0605 39.7068 44.8597 40.3417 44.5039L40.3421 44.5037C40.4609 44.4372 40.4985 44.4032 40.5125 44.387C40.5165 44.3823 40.5176 44.3801 40.5188 44.3773C40.5202 44.3739 40.5261 44.3588 40.5295 44.3248L40.5295 44.3245C40.5937 43.6797 40.6135 43.0304 40.6196 42.3659C39.7375 42.3688 38.8554 42.3684 37.9747 42.3679C37.6613 42.3678 37.3481 42.3676 37.0351 42.3676C36.9558 42.3676 36.8763 42.3677 36.7966 42.3677C36.5212 42.3678 36.2434 42.368 35.9663 42.3665C35.9623 42.3668 35.9568 42.3671 35.9495 42.3675L35.9488 42.3675C35.9239 42.3689 35.8454 42.3732 35.7522 42.3553C35.6459 42.335 35.5164 42.2857 35.4 42.1792C35.2882 42.0768 35.2282 41.9577 35.1959 41.861L36.1667 45.3426ZM36.1667 45.3426C35.4084 45.3111 34.7019 45.1954 34.0436 44.9191C33.4589 44.6737 33.138 44.2415 33.0125 43.5621L33.0125 43.562C32.7084 41.9174 32.7618 40.2999 33.2186 38.7024L33.2186 38.7023C33.293 38.4422 33.4106 38.1904 33.5639 37.9311C33.6812 37.7334 33.8723 37.6212 34.2628 37.5305L36.1667 45.3426ZM36.0917 40.5914C35.8544 40.5917 35.501 40.6619 35.2815 40.9877C35.0701 41.3015 35.1244 41.6467 35.1958 41.8606L36.0917 40.5914ZM36.2934 37.4052L36.2932 37.4052C35.5667 37.3744 34.9018 37.3823 34.2629 37.5305L36.2934 37.4052ZM36.2934 37.4052C36.4523 37.4119 36.6139 37.4196 36.7775 37.4274C37.4544 37.4598 38.1666 37.4938 38.8746 37.4634L38.8749 37.4634M36.2934 37.4052L38.8749 37.4634M38.8749 37.4634C39.4177 37.4398 40.0055 37.3663 40.5805 37.1307M38.8749 37.4634L40.5805 37.1307M40.5805 37.1307C41.6868 36.6779 42.2246 35.7719 42.4544 34.7575L40.5805 37.1307ZM42.4114 32.2329L42.4035 32.6319C42.4017 32.632 42.4002 32.6321 42.3991 32.6321C42.3974 32.6322 42.3966 32.6322 42.3966 32.6322L42.4114 32.2329ZM41.0757 42.3642C41.0758 42.3642 41.0747 42.3642 41.0728 42.3641L41.0757 42.3642ZM40.622 41.9166C40.6219 41.9149 40.6219 41.9139 40.6219 41.9138L40.622 41.9166Z" fill="#C89000" stroke="white" stroke-width="1.3"/>
<path d="M27.65 35.3803C27.6654 35.2935 27.6789 35.2125 27.6919 35.1351C27.723 34.949 27.7506 34.7839 27.7916 34.6088L27.7917 34.6084C27.9514 33.923 28.2174 33.3616 28.6717 32.9356L27.65 35.3803ZM27.65 35.3803V35.3823V35.3845V35.3866V35.3888V35.3909V35.3931V35.3952V35.3974V35.3995V35.4016V35.4038V35.4059V35.4081V35.4102V35.4124V35.4145V35.4167V35.4188V35.421V35.4231V35.4253V35.4274V35.4296V35.4317V35.4339V35.436V35.4382V35.4403V35.4424V35.4446V35.4467V35.4489V35.451V35.4532V35.4553V35.4575V35.4596V35.4618V35.4639V35.4661V35.4682V35.4704V35.4725V35.4747V35.4768V35.479V35.4811V35.4832V35.4854V35.4875V35.4897V35.4918V35.494V35.4961V35.4983V35.5004V35.5026V35.5047V35.5069V35.509V35.5112V35.5133V35.5155V35.5176V35.5197V35.5219V35.524V35.5262V35.5283V35.5305V35.5326V35.5348V35.5369V35.5391V35.5412V35.5434V35.5455V35.5477V35.5498V35.552V35.5541V35.5562V35.5584V35.5605V35.5627V35.5648V35.567V35.5691V35.5713V35.5734V35.5756V35.5777V35.5799V35.582V35.5842V35.5863V35.5885V35.5906V35.5927V35.5949V35.597V35.5992V35.6013V35.6035V35.6056V35.6078V35.6099V35.6121V35.6142V35.6164V35.6185V35.6207V35.6228V35.6249V35.6271V35.6292V35.6314V35.6335V35.6357V35.6378V35.64V35.6421V35.6443V35.6464V35.6486V35.6507V35.6529V35.655V35.6572V35.6593V35.6614V35.6636V35.6657V35.6679V35.67V35.6722V35.6743V35.6765V35.6786V35.6808V35.6829V35.6851V35.6872V35.6894V35.6915V35.6936V35.6958V35.6979V35.7001V35.7022V35.7044V35.7065V35.7087V35.7108V35.713V35.7151V35.7173V35.7194V35.7216V35.7237V35.7258V35.728V35.7301V35.7323V35.7344V35.7366V35.7387V35.7409V35.743V35.7452V35.7473V35.7495V35.7516V35.7538V35.7559V35.758V35.7602V35.7623V35.7645V35.7666V35.7688V35.7709V35.7731V35.7752V35.7774V35.7795V35.7817V35.7838V35.786V35.7881V35.7902V35.7924V35.7945V35.7967V35.7988V35.801V35.8031V35.8053V35.8074V35.8096V35.8117V35.8139V35.816V35.8182V35.8203V35.8224V35.8246V35.8267V35.8289V35.831V35.8332V35.8353V35.8375V35.8396V35.8418V35.8439V35.8461V35.8482V35.8504V35.8525V35.8546V35.8568V35.8589V35.8611V35.8632V35.8654V35.8675V35.8697V35.8718V35.874V35.8761V35.8783V35.8804V35.8826V35.8847V35.8868V35.889V35.8911V35.8933V35.8954V35.8976V35.8997V35.9019V35.904V35.9062V35.9083V35.9105V35.9126V35.9148V35.9169V35.919V35.9212V35.9233V35.9255V35.9276V35.9298V35.9319V35.9341V35.9362V35.9384V35.9405V35.9427V35.9448V35.947V35.9491V35.9512V35.9534V35.9555V35.9577V35.9598V35.962V35.9641V35.9663V35.9684V35.9706V35.9727V35.9749V35.977V35.9792V35.9813V35.9834V35.9856V35.9877V35.9899V35.992V35.9942V35.9963V35.9985V36.0006V36.0028V36.0049V36.0071V36.0092V36.0114V36.0135V36.0156V36.0178V36.0199V36.0221V36.0242V36.0264V36.0285V36.0307V36.0328V36.035V36.0371V36.0393V36.0414V36.0436V36.0457V36.0478V36.05V36.0521V36.0543V36.0564V36.0586V36.0607V36.0629V36.065V36.0672V36.0693V36.0715V36.0736V36.0758V36.0779V36.08V36.0822V36.0843V36.0865V36.0886V36.0908V36.0929V36.0951V36.0972V36.0994V36.1015V36.1037V36.1058V36.108V36.1101V36.1123V36.1144V36.1165V36.1187V36.1208V36.123V36.1251V36.1273V36.1294V36.1316V36.1337V36.1359V36.138V36.1402V36.1423V36.1445V36.1466V36.1487V36.1509V36.153V36.1552V36.1573V36.1595V36.1616V36.1638V36.1659V36.1681V36.1702V36.1724V36.1745V36.1767V36.1788V36.181V36.1831V36.1852V36.1874V36.1895V36.1917V36.1938V36.196V36.1981V36.2003V36.2024V36.2046V36.2067V36.2089V36.211V36.2132V36.2153V36.2175V36.2196V36.2217V36.2239V36.226V36.2282V36.2303V36.2325V36.2346V36.2368V36.2389V36.2411V36.2432V36.2454V36.2475V36.2497V36.2518V36.254V36.2561V36.2582V36.2604V36.2625V36.2647V36.2668V36.269V36.2711V36.2733V36.2754V36.2776V36.2797V36.2819V36.284V36.2862V36.2883V36.2905V36.2926V36.2948V36.2969V36.299V36.3012V36.3033V36.3055V36.3076V36.3098V36.3119V36.3141V36.3162V36.3184V36.3205V36.3227V36.3248V36.327V36.3291V36.3293C27.6607 36.3674 27.6764 36.4293 27.6842 36.5025L27.6843 36.5039C27.7737 37.3612 28.0243 38.1385 28.4828 38.8256C29.0621 39.6935 29.8252 40.1894 30.8037 40.3302C30.8072 40.3047 30.8108 40.2791 30.8144 40.2534C30.9205 39.4902 31.0348 38.6681 31.2795 37.8672L31.2795 37.8671C31.582 36.8777 32.2261 36.1481 33.2371 35.8002L27.65 35.3803ZM29.8411 32.441L29.8411 32.441C29.3982 32.45 29.0156 32.6135 28.6718 32.9355L29.8411 32.441ZM29.8411 32.441C31.6289 32.4044 33.4127 32.4061 35.2045 32.4078C35.976 32.4086 36.749 32.4093 37.5244 32.407M29.8411 32.441L37.5244 32.407M37.5244 32.407C37.5262 32.4072 37.5283 32.4075 37.5306 32.4078C37.5319 32.408 37.5335 32.4082 37.5353 32.4084C37.5557 32.4112 37.6109 32.4185 37.6675 32.4205C37.7241 32.4224 37.8555 32.4232 38.0004 32.3638C38.1779 32.2909 38.3348 32.1438 38.4076 31.932L38.408 31.9308C38.4654 31.7629 38.4669 31.6066 38.4644 31.514C38.463 31.4662 38.4598 31.4204 38.4576 31.3886L38.4575 31.3869C38.455 31.3507 38.4536 31.3303 38.453 31.3123C38.453 31.3121 38.453 31.3119 38.453 31.3118L37.8033 31.333M37.5244 32.407L37.5425 31.2826C37.543 31.2826 37.5435 31.2826 37.544 31.2826C37.5492 31.2826 37.5545 31.2826 37.5598 31.2826C37.57 31.2826 37.5803 31.2826 37.5906 31.2826C37.6318 31.2825 37.6731 31.2825 37.7142 31.2834C37.7171 31.2835 37.7202 31.2835 37.7232 31.2835C37.7595 31.2839 37.8019 31.2844 37.8033 31.333M37.8033 31.333C37.8043 31.3644 37.8066 31.3964 37.8088 31.4286C37.8159 31.5298 37.8231 31.6324 37.7929 31.7207L37.8033 31.333ZM37.4552 27.6577L37.455 27.6577C36.7664 27.6288 36.0768 27.6823 35.3897 27.805L37.4552 27.6577ZM37.4552 27.6577C38.2131 27.6891 38.9204 27.8042 39.5813 28.0783L39.5814 28.0783M37.4552 27.6577L39.5814 28.0783M39.5814 28.0783C40.1913 28.331 40.5062 28.7946 40.6392 29.5414C40.8273 30.5997 40.8397 31.6674 40.721 32.7529L40.721 32.753M39.5814 28.0783L40.721 32.753M40.721 32.753C40.6504 33.3992 40.5177 34.0183 40.3007 34.6162C40.1932 34.9123 40.0534 35.1042 39.8954 35.2333C39.7371 35.3626 39.5225 35.46 39.2165 35.5068L39.2164 35.5068M40.721 32.753L39.2164 35.5068M39.2164 35.5068C38.6189 35.5981 38.0175 35.622 37.4008 35.5973L37.4007 35.5973M39.2164 35.5068L37.4007 35.5973M37.4007 35.5973C37.2198 35.5902 37.0354 35.5815 36.8484 35.5727M37.4007 35.5973L36.8484 35.5727M36.8484 35.5727C36.162 35.5405 35.4401 35.5066 34.7244 35.5385L36.8484 35.5727ZM30.794 40.6231C30.816 40.5865 30.8478 40.5442 30.8925 40.5034C30.9257 40.4732 30.9593 40.4497 30.9915 40.4314L31.1 40.4465L31.1 40.4465L31.4372 40.4937L31.1001 40.4462L31.1 40.4461L30.794 40.6231ZM37.7247 30.6335C37.6761 30.6324 37.6263 30.6325 37.5861 30.6326C37.5767 30.6326 37.5679 30.6326 37.5598 30.6326C37.2034 30.6326 36.8468 30.6325 36.4901 30.6324C35.333 30.632 34.1746 30.6317 33.0164 30.635C33.022 30.0023 33.0297 29.3952 33.0824 28.7866L33.0824 28.7864C33.0922 28.6739 33.117 28.6289 33.1306 28.609C33.1458 28.5869 33.1819 28.5457 33.2854 28.4902L37.7247 30.6335ZM32.5545 30.6365C32.5545 30.6364 32.5556 30.6364 32.5575 30.6365L32.5545 30.6365ZM33.0122 31.0928C33.0123 31.0947 33.0123 31.0957 33.0123 31.0957L33.0122 31.0928ZM33.2855 28.4902C33.9304 28.1449 34.6326 27.9403 35.3897 27.805L33.2855 28.4902ZM34.7243 35.5385C34.2422 35.5599 33.7381 35.6277 33.2372 35.8001L34.7243 35.5385Z" fill="#4A6BB7" stroke="white" stroke-width="1.3"/>
</g>
<defs>
<clipPath id="clip0_2104_3496">
<rect width="50" height="50" fill="white"/>
</clipPath>
</defs>
</svg>

<svg width="50" height="50" fill="none" xmlns="http://www.w3.org/2000/svg"><g clip-path="url(#clip0_2104_3496)"><path fill-rule="evenodd" clip-rule="evenodd" d="M22 42.3c11.211 0 20.3-9.089 20.3-20.3S33.211 1.7 22 1.7 1.7 10.789 1.7 22 10.789 42.3 22 42.3zm0 1.7c12.15 0 22-9.85 22-22S34.15 0 22 0 0 9.85 0 22s9.85 22 22 22z" fill="#fff"/><path d="M26.402 10.115L22.208 21.44c-.04.105.1.185.171.098l7.55-9.227a.1.1 0 00-.025-.148l-3.355-2.097a.1.1 0 00-.147.05z" fill="#4A6BB7"/><path fill-rule="evenodd" clip-rule="evenodd" d="M26.879 11.274l-2.315 6.25 4.167-5.093-1.852-1.157zM25.605 9.82a.95.95 0 011.394-.476l3.355 2.097a.95.95 0 01.232 1.407l-.658-.538.658.538-7.55 9.227-.657-.538.658.538c-.68.83-1.999.074-1.626-.932L25.605 9.82z" fill="#fff"/><path d="M23.973 32.879l-2.35-10.816c-.025-.11-.183-.103-.198.008l-1.41 10.816a.1.1 0 00.099.113h3.762a.1.1 0 00.097-.121z" fill="#4A6BB7"/><path fill-rule="evenodd" clip-rule="evenodd" d="M20.583 21.961c.138-1.056 1.644-1.12 1.87-.079l2.352 10.816a.95.95 0 01-.929 1.152h-3.762a.95.95 0 01-.942-1.073l1.411-10.816zm1.127 4.504l-.742 5.685h1.978l-1.236-5.685z" fill="#fff"/><path d="M18.07 5.126l3.833 16.46c.024.102-.107.167-.174.086L11.079 8.77a.1.1 0 01.03-.152l6.817-3.56a.1.1 0 01.143.067z" fill="#4A6BB7"/><path fill-rule="evenodd" clip-rule="evenodd" d="M17.532 4.306a.95.95 0 011.365.627l-.82.191.82-.191 3.834 16.46c.228.977-1.019 1.594-1.658.82L10.423 9.312a.95.95 0 01.293-1.447l6.816-3.559zm-.07 1.955l-5.139 2.683 8.028 9.723-2.89-12.406z" fill="#fff"/><path d="M33.124 35.906l-10.61-13.264c-.074-.092.045-.213.139-.142l13.263 10.17a.1.1 0 01.015.143l-2.652 3.095a.1.1 0 01-.155-.002z" fill="#4A6BB7"/><path fill-rule="evenodd" clip-rule="evenodd" d="M27.031 26.928l6.192 7.74 1.547-1.806-7.739-5.934zm8.367 6.415h.001l.456-.595-.456.596zm-1.61 2.031l-.585.47.585-.47zm-11.938-12.2c-.7-.877.43-2.03 1.32-1.348l-.517.674m.517-.674l13.263 10.168a.95.95 0 01.144 1.373l-2.653 3.095a.95.95 0 01-1.463-.025L21.85 23.173" fill="#fff"/><path d="M8.49 15.066l13.256 6.944a.1.1 0 01-.028.187L7.136 24.974a.1.1 0 01-.117-.112l1.325-9.72a.1.1 0 01.146-.076z" fill="#4A6BB7"/><path fill-rule="evenodd" clip-rule="evenodd" d="M7.503 15.026a.95.95 0 011.382-.713l13.256 6.944c.797.417.62 1.606-.263 1.774L7.296 25.81l-.16-.835.16.835a.95.95 0 01-1.12-1.062l1.327-9.72zm1.54 1.289l-1.04 7.629 11.443-2.18-10.403-5.449z" fill="#fff"/><path d="M50 36.5C50 43.956 43.956 50 36.5 50S23 43.956 23 36.5 29.044 23 36.5 23 50 29.044 50 36.5z" fill="#404258"/><path fill-rule="evenodd" clip-rule="evenodd" d="M36.5 48.3c6.517 0 11.8-5.283 11.8-11.8s-5.283-11.8-11.8-11.8-11.8 5.283-11.8 11.8 5.283 11.8 11.8 11.8zm0 1.7C43.956 50 50 43.956 50 36.5S43.956 23 36.5 23 23 29.044 23 36.5 29.044 50 36.5 50z" fill="#fff"/><path d="M45.078 40.093h0c.46-.441.724-1.02.89-1.723.041-.179.069-.347.1-.537l.043-.251v-.926a.811.811 0 01-.034-.176m-.999 3.613l1.647-3.662m-1.647 3.662c-.318.305-.658.459-1.048.466-1.93.037-3.859.035-5.794.033-.714-.001-1.428-.002-2.144 0m8.986-.5l-8.986.5m9.985-4.112v-.001l.648-.048m-.648.05s0 0 0 0l.648-.05m-.648.05a5.327 5.327 0 00-.284-1.29m.932 1.24a5.973 5.973 0 00-.316-1.447m-.616.207s0 0 0 0l.616-.207m-.616.207l.616-.207m-.616.207c-.481-1.43-1.625-2.364-3.01-2.532a16.453 16.453 0 01-.329 2.099l3.955.226M36.167 45.343a9.611 9.611 0 002.068-.148h0c.767-.135 1.472-.335 2.107-.691h0a.668.668 0 00.17-.117.033.033 0 00.007-.01.19.19 0 00.01-.052h0a21.75 21.75 0 00.09-1.96c-.882.004-1.764.003-2.644.003h-1.178c-.276 0-.554 0-.83-.002l-.017.002h-.001a.72.72 0 01-.753-.507l.97 3.482zm0 0c-.759-.032-1.465-.148-2.123-.424-.585-.245-.906-.677-1.031-1.357h0c-.305-1.645-.251-3.262.206-4.86h0c.074-.26.192-.512.345-.77.117-.199.308-.31.699-.401l1.904 7.812zm-.075-4.752c-.238 0-.591.07-.81.397-.212.313-.158.659-.086.873l.896-1.27zm.201-3.186h0c-.726-.03-1.391-.023-2.03.126l2.03-.126zm0 0l.485.022c.676.033 1.389.067 2.097.036h0m-2.582-.058l2.582.058m0 0c.543-.023 1.13-.097 1.706-.332m-1.706.332l1.706-.332m0 0c1.106-.453 1.644-1.36 1.873-2.373l-1.873 2.373zm1.83-4.898l-.008.399h-.006l.014-.4zm-1.335 10.131h-.003.003zm-.454-.447v-.003.003z" fill="#C89000" stroke="#fff" stroke-width="1.3"/><path d="M27.65 35.38l.042-.245c.031-.186.059-.351.1-.526h0c.16-.686.425-1.247.88-1.673L27.65 35.38zm0 0v.95c.01.038.026.1.034.173v.002c.09.857.34 1.635.799 2.322.58.867 1.342 1.363 2.32 1.504l.011-.077c.107-.763.22-1.585.465-2.386h0c.303-.99.947-1.719 1.958-2.067l-5.587-.42zm2.191-2.939h0c-.443.009-.825.172-1.17.494l1.17-.494zm0 0c1.788-.037 3.572-.035 5.364-.033.771 0 1.544.001 2.32-.001m-7.684.034l7.683-.034m0 0h.007l.004.001c.02.003.076.01.133.012a.804.804 0 00.332-.056.716.716 0 00.408-.432v-.001a1.18 1.18 0 00.056-.417c-.001-.048-.004-.094-.006-.125v-.002a2.247 2.247 0 01-.005-.075s0 0 0 0l-.65.021m-.279 1.074l.018-1.124h.048a5.09 5.09 0 01.133 0c.037 0 .079.001.08.05m0 0l.006.096c.007.1.014.203-.016.292l.01-.388zm-.348-3.675h0a9.472 9.472 0 00-2.065.147l2.065-.147zm0 0c.758.031 1.465.146 2.126.42h0m-2.126-.42l2.126.42m0 0c.61.253.925.717 1.058 1.463.188 1.059.2 2.126.082 3.212h0m-1.14-4.675l1.14 4.675m0 0a7.954 7.954 0 01-.42 1.863c-.108.296-.248.488-.406.617-.158.13-.373.227-.678.274h0m1.504-2.754l-1.505 2.754m0 0a9.452 9.452 0 01-1.815.09h0m1.815-.09l-1.815.09m0 0l-.553-.024m.553.024l-.553-.024m0 0c-.686-.032-1.408-.066-2.124-.035l2.124.035zm-6.054 5.05a.538.538 0 01.197-.192l.109.016h0l.337.047-.337-.048h0l-.306.177zm6.93-9.99a5.58 5.58 0 00-.138 0H36.49c-1.157-.001-2.315-.001-3.474.002.006-.633.014-1.24.066-1.848h0c.01-.113.035-.158.049-.178a.416.416 0 01.154-.119l4.44 2.144zm-5.17.004h.003-.003zm.458.456v.003-.003zm.273-2.603c.645-.345 1.348-.55 2.105-.685l-2.105.685zm1.44 7.049a5.25 5.25 0 00-1.488.261l1.487-.261z" fill="#4A6BB7" stroke="#fff" stroke-width="1.3"/></g><defs><clipPath id="clip0_2104_3496"><path fill="#fff" d="M0 0h50v50H0z"/></clipPath></defs></svg>
